apps/documenteditor/main/resources/img/toolbar/2.5x/btn-function.svg

<svg width="20" height="20" viewBox="0 0 20 20" fill="none" xmlns="http://www.w3.org/2000/svg">
<path d="M10.4032 7.0633L10.2649 7.55901H9.14372L8.29896 10.8412C7.92521 12.2883 7.54891 13.4074 7.17005 14.1985C6.63247 15.3151 6.05394 16.0862 5.43445 16.5118C4.96343 16.8373 4.49241 17 4.02139 17C3.71421 17 3.4531 16.9099 3.23807 16.7296C3.07936 16.6044 3 16.4417 3 16.2414C3 16.0812 3.06656 15.941 3.19967 15.8208C3.32767 15.7057 3.48638 15.6481 3.67581 15.6481C3.81404 15.6481 3.9318 15.6906 4.02907 15.7758C4.12123 15.8609 4.16731 15.9585 4.16731 16.0687C4.16731 16.1788 4.11355 16.2815 4.00603 16.3766C3.92412 16.4467 3.88316 16.4993 3.88316 16.5343C3.88316 16.5794 3.90108 16.6144 3.93692 16.6395C3.983 16.6745 4.05467 16.6921 4.15195 16.6921C4.3721 16.6921 4.60505 16.6245 4.8508 16.4893C5.09142 16.3541 5.30645 16.1513 5.49589 15.8809C5.68532 15.6155 5.86451 15.23 6.03346 14.7242C6.10514 14.5139 6.29713 13.8205 6.60943 12.6438L7.94569 7.55901H6.60943L6.71695 7.0633C7.14189 7.0633 7.43884 7.03577 7.60779 6.98069C7.77674 6.9206 7.93033 6.81044 8.06857 6.65021C8.21192 6.48498 8.39623 6.17954 8.6215 5.73391C8.92357 5.13305 9.21284 4.66738 9.4893 4.33691C9.86817 3.89127 10.2649 3.5583 10.6796 3.33798C11.0995 3.11266 11.4937 3 11.8623 3C12.2514 3 12.5637 3.09764 12.7992 3.29292C13.0347 3.48319 13.1525 3.69099 13.1525 3.91631C13.1525 4.09156 13.0936 4.23927 12.9759 4.35944C12.8581 4.47961 12.7071 4.5397 12.5228 4.5397C12.3641 4.5397 12.2335 4.49464 12.1311 4.40451C12.0338 4.31438 11.9852 4.20672 11.9852 4.08154C11.9852 4.00143 12.0185 3.90379 12.085 3.78863C12.1516 3.66845 12.1849 3.58834 12.1849 3.54828C12.1849 3.47818 12.1618 3.42561 12.1157 3.39056C12.0492 3.34049 11.9519 3.31545 11.8239 3.31545C11.5014 3.31545 11.2121 3.41559 10.9561 3.61588C10.6131 3.88126 10.3059 4.29685 10.0346 4.86266C9.89632 5.15808 9.6429 5.89163 9.27427 7.0633H10.4032Z" fill="black"/>
<path d="M12.8453 6.88305C13.0962 7.14342 13.2856 7.40379 13.4136 7.66416C13.5058 7.84442 13.6568 8.3176 13.8667 9.08369L14.5425 8.09227C14.7217 7.85193 14.9393 7.62411 15.1953 7.4088C15.4513 7.18848 15.6765 7.03827 15.8711 6.95815C15.994 6.90808 16.1296 6.88305 16.2781 6.88305C16.4983 6.88305 16.6723 6.94063 16.8003 7.05579C16.9334 7.17096 17 7.31116 17 7.47639C17 7.66667 16.9616 7.79685 16.8848 7.86695C16.7415 7.99213 16.5776 8.05472 16.3933 8.05472C16.2858 8.05472 16.1706 8.03219 16.0477 7.98712C15.8071 7.90701 15.6458 7.86695 15.5639 7.86695C15.441 7.86695 15.2951 7.93705 15.1262 8.07725C14.8087 8.33763 14.4299 8.84084 13.9896 9.58691L14.6193 12.1706C14.7166 12.5662 14.7985 12.804 14.8651 12.8841C14.9316 12.9592 14.9982 12.9968 15.0647 12.9968C15.1722 12.9968 15.2977 12.9392 15.441 12.824C15.7226 12.5937 15.9632 12.2933 16.1629 11.9227L16.4317 12.0579C16.1092 12.6488 15.6996 13.1395 15.203 13.53C14.9214 13.7504 14.6833 13.8605 14.4888 13.8605C14.202 13.8605 13.9742 13.7028 13.8053 13.3873C13.6978 13.1921 13.475 12.3509 13.1371 10.8637C12.3385 12.2207 11.6985 13.0944 11.2172 13.485C10.9049 13.7353 10.6029 13.8605 10.311 13.8605C10.1062 13.8605 9.91936 13.7879 9.75041 13.6427C9.62754 13.5325 9.5661 13.3848 9.5661 13.1996C9.5661 13.0343 9.62242 12.8966 9.73505 12.7865C9.84769 12.6763 9.98592 12.6212 10.1498 12.6212C10.3136 12.6212 10.4877 12.7014 10.672 12.8616C10.8051 12.9768 10.9075 13.0343 10.9792 13.0343C11.0406 13.0343 11.1199 12.9943 11.2172 12.9142C11.4579 12.7239 11.7855 12.3133 12.2002 11.6824C12.6149 11.0515 12.8863 10.5959 13.0143 10.3155C12.6968 9.09871 12.5253 8.45529 12.4997 8.38519C12.382 8.05973 12.2284 7.8294 12.0389 7.69421C11.8495 7.55901 11.5705 7.49142 11.2019 7.49142C11.0841 7.49142 10.9484 7.49642 10.7948 7.50644V7.23605L12.8453 6.88305Z" fill="black"/>
</svg>

<svg xmlns="http://www.w3.org/2000/svg" width="20" height="20" fill="none"><path fill="#000" d="M11.862 3c.39 0 .701.098.937.293.235.19.353.398.353.623a.61.61 0 0 1-.63.624.572.572 0 0 1-.391-.136.425.425 0 0 1-.146-.322c0-.08.034-.178.1-.293.066-.12.1-.201.1-.241 0-.07-.023-.122-.069-.157a.481.481 0 0 0-.292-.076c-.322 0-.612.1-.868.301-.343.266-.65.68-.922 1.246-.138.296-.391 1.03-.76 2.201h1.13l-.14.496h-1.12l-.845 3.282c-.374 1.447-.75 2.566-1.13 3.357-.537 1.117-1.115 1.888-1.734 2.314-.471.325-.943.488-1.414.488a1.18 1.18 0 0 1-.783-.27.593.593 0 0 1-.238-.49c0-.16.066-.3.2-.42a.687.687 0 0 1 .476-.173c.138 0 .256.042.353.127a.39.39 0 0 1 .138.293c0 .11-.054.214-.161.309-.082.07-.123.122-.123.157 0 .045.018.08.054.106.046.035.118.052.215.052.22 0 .453-.068.699-.203.24-.135.456-.338.645-.608.19-.265.368-.65.537-1.156.072-.21.264-.905.576-2.081l1.336-5.085H6.61l.108-.496c.425 0 .721-.028.89-.083.17-.06.323-.17.461-.33.144-.165.328-.47.553-.916.302-.6.592-1.067.868-1.397.38-.446.776-.779 1.19-1 .42-.224.815-.337 1.183-.337Z"/><path fill="#000" d="M16.278 6.883c.22 0 .395.058.523.173a.535.535 0 0 1 .199.42c0 .19-.038.321-.115.391a.726.726 0 0 1-.491.188 1.01 1.01 0 0 1-.346-.068c-.24-.08-.403-.12-.484-.12-.123 0-.27.07-.438.21-.317.26-.696.764-1.137 1.51l.63 2.584c.097.395.18.633.246.713.067.075.133.113.2.113.107 0 .233-.058.376-.173.282-.23.522-.53.722-.901l.269.135a4.727 4.727 0 0 1-1.229 1.472c-.281.22-.52.33-.715.33-.286 0-.513-.157-.682-.472-.108-.196-.331-1.038-.67-2.525-.798 1.357-1.438 2.232-1.92 2.622-.311.25-.614.375-.905.375a.842.842 0 0 1-.561-.217.567.567 0 0 1-.184-.444.57.57 0 0 1 .583-.578c.164 0 .339.08.523.24.133.115.236.173.307.173.062 0 .14-.04.238-.12.24-.19.569-.6.983-1.231.415-.631.687-1.087.815-1.368a79.983 79.983 0 0 0-.515-1.93c-.118-.325-.272-.555-.46-.69-.19-.136-.47-.204-.838-.204-.118 0-.254.006-.407.016v-.27l2.05-.354c.252.26.441.52.57.781.091.18.242.654.452 1.42l.676-.992c.179-.24.397-.468.652-.683.256-.22.482-.37.676-.451a1.07 1.07 0 0 1 .407-.075Z"/></svg>
